Obsidian-SemiLight/actions/24s/view-time-schedule-insert.svg

<svg viewBox="0 0 24 24" xmlns="http://www.w3.org/2000/svg"><path d="m4 4v16h11v-1h-10v-11h14v7h1v-11h-2v3h-2v-3h-8v3h-2v-3zm2 5v3h1v-1h4v1h1v-3h-1v1h-4v-1zm3 4v3h1v-1h4v1h1v-3h-1v1h-4v-1zm9 3v2h-2v1h2v2h1v-2h2v-1h-2v-2z" fill="#4d4d4d"/></svg>

<svg xmlns="http://www.w3.org/2000/svg" viewBox="0 0 24 24">
  <defs id="defs3051">
    <style type="text/css" id="current-color-scheme">
      .ColorScheme-Text {
        color:#4d4d4d;
      }
      </style>
  </defs>
 <path style="fill:currentColor;fill-opacity:1;stroke:none" 
     d="M 4 4 L 4 20 L 15 20 L 15 19 L 5 19 L 5 8 L 19 8 L 19 15 L 20 15 L 20 4 L 18 4 L 18 7 L 16 7 L 16 4 L 8 4 L 8 7 L 6 7 L 6 4 L 4 4 z M 6 9 L 6 12 L 7 12 L 7 11 L 11 11 L 11 12 L 12 12 L 12 9 L 11 9 L 11 10 L 7 10 L 7 9 L 6 9 z M 9 13 L 9 16 L 10 16 L 10 15 L 14 15 L 14 16 L 15 16 L 15 13 L 14 13 L 14 14 L 10 14 L 10 13 L 9 13 z M 18 16 L 18 18 L 16 18 L 16 19 L 18 19 L 18 21 L 19 21 L 19 19 L 21 19 L 21 18 L 19 18 L 19 16 L 18 16 z "
     class="ColorScheme-Text"
     />
</svg>
